X: 3
T:Andy McGann's
R:Reel
H:Buncrana 79
M:4/4
L:1/8
Q:1/2=112
K:C
|:^fg|ec~c2 Gcec|AF~F2 CFAF|BG~G2 BcdB|cBce ag^fg|
ec~c2 Gcec|AF~F2 CFAF|BG~G2 BcdB|c2cB c2gf|
ec~c2 Gcec|AF~F2 CFAF|BG~G2 BcdB|cBce ag^fg|
ec~c2 =B3c|AF~F2 CFAF|BG~G2 BcdB|c2cB c2AB||
c2gc acgc|c2gc BcdB|c2gc acgc|BG~G2 BcdB|
c2gc acgc|c2gc BcdB|cg~g2 eg~g2|ag^fa g4|
c2gc acgc|c2gc BcdB|c2GE CEGc|Addc dfed|
c2gc acgc|c2gc BcdB|cg~g2 eg~g2|ag^fa g4|]
